app/src/assets/img/stack-icons/html5.svg

<svg xmlns="http://www.w3.org/2000/svg" width="120" height="60"><path d="M6.3 21.475H12v5.63h5.213v-5.63h5.7v17.05h-5.7v-5.7H12v5.7H6.3v-17.05zm24.107 5.655H25.38v-5.654h15.736v5.654h-5.02v11.397h-5.7V27.13zm13.207-5.655h5.943l3.656 6 3.652-6H62.8v17.05h-5.676v-8.452l-3.92 6.063h-.098L49.2 30.074v8.452h-5.576zm22.03 0h5.7V32.9h8.015v5.636H65.645z"/><path d="M82.07 12.06h31.637l-2.882 32.288L97.87 47.94l-12.92-3.587z" fill="#e44d26"/><path d="M108.36 42.293l2.463-27.592H97.9v30.494z" fill="#f16529"/><path d="M92.65 26.678l-.362-4.056H97.9v-3.96h-9.93l1.068 11.977H97.9v-3.96zm-3.446 5.942l.555 6.22 8.113 2.252.018-.005v-4.12l-.017.005-4.4-1.2-.282-3.16h-2.143z" fill="#ebebeb"/><path d="M106.986 27.74l.097-1.064h-9.206v3.96h4.877l-.46 5.137-4.417 1.192v4.12l8.12-2.25.06-.67zm-9.1-5.118h9.567l.355-3.97h-9.922v3.95z" fill="#fff"/></svg>

<?xml version="1.0" encoding="UTF-8" standalone="no"?>
<!DOCTYPE svg PUBLIC "-//W3C//DTD SVG 1.1//EN" "http://www.w3.org/Graphics/SVG/1.1/DTD/svg11.dtd">
<svg width="100%" height="100%" viewBox="0 0 120 60" version="1.1" xmlns="http://www.w3.org/2000/svg" xmlns:xlink="http://www.w3.org/1999/xlink" xml:space="preserve" xmlns:serif="http://www.serif.com/" style="fill-rule:evenodd;clip-rule:evenodd;stroke-linejoin:round;stroke-miterlimit:2;">
    <path d="M6.3,21.475L12,21.475L12,27.105L17.213,27.105L17.213,21.475L22.913,21.475L22.913,38.525L17.213,38.525L17.213,32.825L12,32.825L12,38.525L6.3,38.525L6.3,21.475ZM30.407,27.13L25.38,27.13L25.38,21.476L41.116,21.476L41.116,27.13L36.096,27.13L36.096,38.527L30.396,38.527L30.396,27.13L30.407,27.13ZM43.614,21.475L49.557,21.475L53.213,27.475L56.865,21.475L62.8,21.475L62.8,38.525L57.124,38.525L57.124,30.073L53.204,36.136L53.106,36.136L49.2,30.074L49.2,38.526L43.624,38.526L43.614,21.475ZM65.644,21.475L71.344,21.475L71.344,32.9L79.359,32.9L79.359,38.536L65.645,38.536L65.644,21.475Z" style="fill:white;fill-rule:nonzero;"/>
    <path d="M82.07,12.06L113.707,12.06L110.825,44.348L97.87,47.94L84.95,44.353L82.07,12.06Z" style="fill:rgb(228,77,38);fill-rule:nonzero;"/>
    <path d="M108.36,42.293L110.823,14.701L97.9,14.701L97.9,45.195L108.36,42.293Z" style="fill:rgb(241,101,41);fill-rule:nonzero;"/>
    <path d="M92.65,26.678L92.288,22.622L97.9,22.622L97.9,18.662L87.97,18.662L89.038,30.639L97.9,30.639L97.9,26.679L92.65,26.678ZM89.204,32.62L89.759,38.84L97.872,41.092L97.89,41.087L97.89,36.967L97.873,36.972L93.473,35.772L93.191,32.612L91.048,32.612L89.204,32.62Z" style="fill:rgb(235,235,235);fill-rule:nonzero;"/>
    <path d="M106.986,27.74L107.083,26.676L97.877,26.676L97.877,30.636L102.754,30.636L102.294,35.773L97.877,36.965L97.877,41.085L105.997,38.835L106.057,38.165L106.986,27.74ZM97.886,22.622L107.453,22.622L107.808,18.652L97.886,18.652L97.886,22.622Z" style="fill:white;fill-rule:nonzero;"/>
</svg>
